X: 21
T: Frible
%R: slip-jig
B: T. Davis "24 Country Dances for the Year 1748"
S: http://imslp.org/wiki/24_Country_Dances_for_the_Year_1748_(Davis,_T.) 2013-11-30
Z: 2013 John Chambers <jc:trillian.mit.edu>
N: The 2nd strain has initial repeat but no final repeat; fixed with a final repeat symbol.
M: 9/8
L: 1/8
K: A
% - - - - - - - - - - - - - - - - - - - - - - - - -
% Voice 1 has just a single staff for compactness.
V: 1 staves=2
|:\
ABc ABc {c}TB2A | efg agf e3 :|\
|:\
fed def {f}Te2d | edc cde {e}d2c |\
dcB Bcd {d}c2B | cde dcB A3 :|
% - - - - - - - - - - - - - - - - - - - - - - - - -
% Voice 2 preserves the original staff breaks.
V: 2 clef=bass middle=d
|:\
a3 A3 e3 | "6"g3 "7;#"b3 e3 :|\
|:\
"6"d'3 d'3 "7"^g3 | "6"c'3 c'3 "7"f3 |\
"6"d'3 d'3 "7"e3 | a2c d2e A3 :|
%%begintext align
%% The first Cu. cast off into the 2d Cu. Place the 2d Cu. cast off into their own Places first & 2d
%% Man take Hands & foot it to their Partners & lead thro' to the Women's Side & the 1st & 2d Wo do
%% the same at the same Time to the Men's Side. then foot it & Hands half round into the 2d Cu. Place.
%%endtext

%%sep 1 1 500
%%sep 1 1 500

